X: 39495
T: Tatter Jack Walsh
R: jig
M: 6/8
K: Dmixolydian
|:Ade =fed|cAB c2 A|dcA GFG|AdD EFG|
Add =fed|cAB c2 d|eag edc|AGE D2:|
|:~d3 afd|d^cd afd|~c3 gec|cBc gfg|
agf ged|cAB c2 d|eag edc|AGE D2:|

